Catalina-light/apps/scalable/ms-office.svg

<?xml version="1.0" encoding="UTF-8" standalone="no"?>
<!-- Created with Inkscape (http://www.inkscape.org/) -->

<svg
   xmlns:dc="http://purl.org/dc/elements/1.1/"
   xmlns:cc="http://creativecommons.org/ns#"
   xmlns:rdf="http://www.w3.org/1999/02/22-rdf-syntax-ns#"
   xmlns:svg="http://www.w3.org/2000/svg"
   xmlns="http://www.w3.org/2000/svg"
   xmlns:xlink="http://www.w3.org/1999/xlink"
   xmlns:sodipodi="http://sodipodi.sourceforge.net/DTD/sodipodi-0.dtd"
   xmlns:inkscape="http://www.inkscape.org/namespaces/inkscape"
   version="1.1"
   id="svg2"
   width="128"
   height="128"
   viewBox="0 0 128 128"
   sodipodi:docname="ms-office.svg"
   inkscape:version="0.92.4 5da689c313, 2019-01-14">
  <metadata
     id="metadata8">
    <rdf:RDF>
      <cc:Work
         rdf:about="">
        <dc:format>image/svg+xml</dc:format>
        <dc:type
           rdf:resource="http://purl.org/dc/dcmitype/StillImage" />
        <dc:title></dc:title>
      </cc:Work>
    </rdf:RDF>
  </metadata>
  <defs
     id="defs6">
    <linearGradient
       id="linearGradient1012"
       inkscape:collect="always">
      <stop
         id="stop996"
         offset="0"
         style="stop-color:#e45757;stop-opacity:1" />
      <stop
         style="stop-color:#dd4040;stop-opacity:1"
         offset="0.22539063"
         id="stop998" />
      <stop
         id="stop1010"
         offset="1"
         style="stop-color:#d42c2c;stop-opacity:1" />
    </linearGradient>
    <linearGradient
       inkscape:collect="always"
       id="linearGradient915">
      <stop
         style="stop-color:#000000;stop-opacity:1;"
         offset="0"
         id="stop911" />
      <stop
         style="stop-color:#000000;stop-opacity:0;"
         offset="1"
         id="stop913" />
    </linearGradient>
    <linearGradient
       inkscape:collect="always"
       id="linearGradient905">
      <stop
         style="stop-color:#000000;stop-opacity:1;"
         offset="0"
         id="stop901" />
      <stop
         style="stop-color:#000000;stop-opacity:0;"
         offset="1"
         id="stop903" />
    </linearGradient>
    <linearGradient
       inkscape:collect="always"
       id="linearGradient883">
      <stop
         style="stop-color:#000000;stop-opacity:1;"
         offset="0"
         id="stop879" />
      <stop
         style="stop-color:#000000;stop-opacity:0;"
         offset="1"
         id="stop881" />
    </linearGradient>
    <linearGradient
       inkscape:collect="always"
       id="linearGradient871">
      <stop
         style="stop-color:#000000;stop-opacity:1;"
         offset="0"
         id="stop867" />
      <stop
         style="stop-color:#000000;stop-opacity:0;"
         offset="1"
         id="stop869" />
    </linearGradient>
    <linearGradient
       inkscape:collect="always"
       id="linearGradient861">
      <stop
         style="stop-color:#121212;stop-opacity:1;"
         offset="0"
         id="stop857" />
      <stop
         style="stop-color:#121212;stop-opacity:0;"
         offset="1"
         id="stop859" />
    </linearGradient>
    <linearGradient
       inkscape:collect="always"
       id="linearGradient833">
      <stop
         style="stop-color:#e45757;stop-opacity:1"
         offset="0"
         id="stop829" />
      <stop
         id="stop837"
         offset="0.22539063"
         style="stop-color:#df3a3a;stop-opacity:1" />
      <stop
         style="stop-color:#e24a4a;stop-opacity:1"
         offset="0.22539063"
         id="stop839" />
      <stop
         id="stop841"
         offset="0.46110788"
         style="stop-color:#ce2121;stop-opacity:1" />
      <stop
         style="stop-color:#c52020;stop-opacity:1"
         offset="0.46110788"
         id="stop843" />
      <stop
         id="stop845"
         offset="0.75361681"
         style="stop-color:#782323;stop-opacity:1" />
      <stop
         style="stop-color:#9b3a3a;stop-opacity:1"
         offset="0.75361681"
         id="stop847" />
      <stop
         style="stop-color:#5f2f2f;stop-opacity:1"
         offset="1"
         id="stop831" />
    </linearGradient>
    <linearGradient
       inkscape:collect="always"
       id="linearGradient825">
      <stop
         style="stop-color:#b02121;stop-opacity:1"
         offset="0"
         id="stop821" />
      <stop
         style="stop-color:#a12c2c;stop-opacity:1"
         offset="1"
         id="stop823" />
    </linearGradient>
    <linearGradient
       inkscape:collect="always"
       xlink:href="#linearGradient825"
       id="linearGradient827"
       x1="-350.65689"
       y1="190.2961"
       x2="-101.11456"
       y2="455.961"
       gradientUnits="userSpaceOnUse"
       gradientTransform="matrix(0.19411184,0,0,0.19411184,85.327432,0.71470798)" />
    <linearGradient
       inkscape:collect="always"
       xlink:href="#linearGradient833"
       id="linearGradient835"
       x1="758.25604"
       y1="166.20975"
       x2="766.34314"
       y2="738.85797"
       gradientUnits="userSpaceOnUse"
       gradientTransform="matrix(0.19411184,0,0,0.19411184,-98.347101,-14.556719)" />
    <linearGradient
       inkscape:collect="always"
       xlink:href="#linearGradient861"
       id="linearGradient863"
       x1="340.44046"
       y1="329.36923"
       x2="379.53574"
       y2="329.36923"
       gradientUnits="userSpaceOnUse"
       gradientTransform="matrix(0.19411184,0,0,0.19411184,4.7064972,0.5803923)" />
    <linearGradient
       inkscape:collect="always"
       xlink:href="#linearGradient871"
       id="linearGradient873"
       x1="165.37656"
       y1="493.0159"
       x2="165.37656"
       y2="512.39056"
       gradientUnits="userSpaceOnUse"
       gradientTransform="matrix(0.19411184,0,0,0.19411184,4.7064972,0.5803923)" />
    <radialGradient
       inkscape:collect="always"
       xlink:href="#linearGradient883"
       id="radialGradient885"
       cx="339.38943"
       cy="482.85529"
       fx="339.38943"
       fy="482.85529"
       r="30.702576"
       gradientTransform="matrix(0.25511248,-0.01660813,0.01346453,0.20682475,-22.852213,-0.53657576)"
       gradientUnits="userSpaceOnUse" />
    <radialGradient
       inkscape:collect="always"
       xlink:href="#linearGradient905"
       id="radialGradient907"
       cx="354.03577"
       cy="185.93909"
       fx="354.03577"
       fy="185.93909"
       r="20.499084"
       gradientTransform="matrix(0.22310551,0.00602457,-0.00498793,0.1847159,-4.6339045,-1.1441322)"
       gradientUnits="userSpaceOnUse" />
    <radialGradient
       inkscape:collect="always"
       xlink:href="#linearGradient915"
       id="radialGradient917"
       cx="676.6192"
       cy="-100.37155"
       fx="676.6192"
       fy="-100.37155"
       r="14.94682"
       gradientTransform="matrix(0.00569972,0.21309767,-0.19814803,0.00529986,-13.302939,-46.86143)"
       gradientUnits="userSpaceOnUse" />
    <linearGradient
       inkscape:collect="always"
       xlink:href="#linearGradient1012"
       id="linearGradient994"
       gradientUnits="userSpaceOnUse"
       gradientTransform="matrix(0.19174428,-0.03022477,0.03022477,0.19174428,-99.414172,0.93426035)"
       x1="758.25604"
       y1="166.20975"
       x2="766.34314"
       y2="738.85797" />
  </defs>
  <sodipodi:namedview
     pagecolor="#ffffff"
     bordercolor="#666666"
     borderopacity="1"
     objecttolerance="10"
     gridtolerance="10"
     guidetolerance="10"
     inkscape:pageopacity="0"
     inkscape:pageshadow="2"
     inkscape:window-width="1920"
     inkscape:window-height="1024"
     id="namedview4"
     showgrid="false"
     inkscape:zoom="0.53629981"
     inkscape:cx="34.177013"
     inkscape:cy="63.064813"
     inkscape:window-x="0"
     inkscape:window-y="30"
     inkscape:window-maximized="1"
     inkscape:current-layer="svg2" />
  <rect
     style="opacity:1;fill:url(#linearGradient835);fill-opacity:1;stroke:none;stroke-width:0.15528947;stroke-linecap:round;stroke-linejoin:round;stroke-miterlimit:4;stroke-dasharray:none;stroke-dashoffset:0;stroke-opacity:1;paint-order:fill markers stroke"
     id="rect817"
     width="91.779961"
     height="115.00123"
     x="13.481122"
     y="16.167465"
     rx="9.1176825"
     ry="9.1176825"
     transform="rotate(-8.9578614)" />
  <path
     sodipodi:nodetypes="sccccccssss"
     inkscape:connector-curvature="0"
     id="rect991"
     d="M 24.840573,12.451457 43.002469,9.5885858 61.164368,6.7257143 79.326252,3.8628452 97.232866,117.46142 l -18.161884,2.86287 -18.161899,2.86287 -18.161896,2.86287 c -4.989587,0.78651 -9.639659,-2.59719 -10.42617,-7.58678 L 17.253796,22.877629 c -0.786512,-4.989587 2.59719,-9.639661 7.586777,-10.426172 z"
     style="opacity:1;fill:url(#linearGradient994);fill-opacity:1;stroke:none;stroke-width:0.15528947;stroke-linecap:round;stroke-linejoin:round;stroke-miterlimit:4;stroke-dasharray:none;stroke-dashoffset:0;stroke-opacity:1;paint-order:fill markers stroke" />
  <path
     style="fill:url(#linearGradient863);fill-opacity:1;stroke:none;stroke-width:0.19411184px;stroke-linecap:butt;stroke-linejoin:miter;stroke-opacity:1"
     d="m 72.804753,35.435421 h 5.238341 l 0.335774,57.89024 -7.588841,0.268633 z"
     id="path855"
     inkscape:connector-curvature="0"
     sodipodi:nodetypes="ccccc" />
  <path
     style="opacity:0.65899999;fill:url(#linearGradient873);fill-opacity:1;stroke:none;stroke-width:0.19411184px;stroke-linecap:butt;stroke-linejoin:miter;stroke-opacity:1"
     d="m 10.817879,96.81788 v 3.22359 h 59.972148 v -4.835384 z"
     id="path865"
     inkscape:connector-curvature="0" />
  <path
     style="fill:url(#radialGradient885);fill-opacity:1;stroke:none;stroke-width:0.19411184px;stroke-linecap:butt;stroke-linejoin:miter;stroke-opacity:1"
     d="m 70.790027,100.04147 -0.0025,-1.999646 -0.832565,-4.905816 4.241731,0.338176 3.641247,-0.148224 3.988999,0.04749 -1.329666,7.31314 -10.589811,6.12594 z"
     id="path877"
     inkscape:connector-curvature="0"
     sodipodi:nodetypes="ccccccccc" />
  <path
     style="opacity:0.62999998;fill:url(#radialGradient907);fill-opacity:1;stroke:none;stroke-width:0.19411184px;stroke-linecap:butt;stroke-linejoin:miter;stroke-opacity:1"
     d="m 70.252745,31.3052 7.958236,-0.167895 -0.167887,4.298116 h -5.238341 z"
     id="path891"
     inkscape:connector-curvature="0" />
  <path
     style="opacity:0.594;fill:url(#radialGradient917);fill-opacity:1;stroke:none;stroke-width:0.19411184px;stroke-linecap:butt;stroke-linejoin:miter;stroke-opacity:1"
     d="M 10.817879,100.04147 V 94.774341 H 5.0151699 v 5.461109 z"
     id="path909"
     inkscape:connector-curvature="0" />
  <rect
     style="opacity:1;fill:url(#linearGradient827);fill-opacity:1;stroke:none;stroke-width:0.15528947;stroke-linecap:round;stroke-linejoin:round;stroke-miterlimit:4;stroke-dasharray:none;stroke-dashoffset:0;stroke-opacity:1;paint-order:fill markers stroke"
     id="rect819"
     width="68.382599"
     height="66.673035"
     x="6.4974871"
     y="31.393576"
     rx="4.7487969"
     ry="4.7487969" />
  <g
     id="g909"
     style="opacity:0.27900002"
     transform="translate(-159.78115,-0.616265)">
    <path
       style="fill:none;fill-opacity:1;stroke:#000000;stroke-width:1;stroke-linecap:round;stroke-linejoin:bevel;stroke-miterlimit:4;stroke-dasharray:none;stroke-opacity:0.05882353;paint-order:stroke fill markers"
       d="m 178.23684,79.255894 c 0,0 8.21687,-2.259633 8.31959,-2.670481 0.10271,-0.410841 0.30813,-22.596392 0.30813,-22.596392 l 16.1256,-3.800302 v 32.970193 l -23.52078,-3.286753 23.82892,8.627716 13.24077,-4.154987 -0.0938,-37.545627 -13.45513,-4.005725 -24.44518,9.243979 z"
       id="path887"
       inkscape:connector-curvature="0"
       sodipodi:nodetypes="cccccccccccc" />
    <path
       sodipodi:nodetypes="cccccccccccc"
       inkscape:connector-curvature="0"
       id="path889"
       d="m 178.23684,79.255894 c 0,0 8.21687,-2.259633 8.31959,-2.670481 0.10271,-0.410841 0.30813,-22.596392 0.30813,-22.596392 l 16.1256,-3.800302 v 32.970193 l -23.52078,-3.286753 23.82892,8.627716 13.24077,-4.154987 -0.0938,-37.545627 -13.45513,-4.005725 -24.44518,9.243979 z"
       style="fill:none;fill-opacity:1;stroke:#000000;stroke-width:2;stroke-linecap:round;stroke-linejoin:bevel;stroke-miterlimit:4;stroke-dasharray:none;stroke-opacity:0.05882353;paint-order:stroke fill markers" />
    <path
       style="fill:none;fill-opacity:1;stroke:#000000;stroke-width:3;stroke-linecap:round;stroke-linejoin:bevel;stroke-miterlimit:4;stroke-dasharray:none;stroke-opacity:0.05882353;paint-order:stroke fill markers"
       d="m 178.23684,79.255894 c 0,0 8.21687,-2.259633 8.31959,-2.670481 0.10271,-0.410841 0.30813,-22.596392 0.30813,-22.596392 l 16.1256,-3.800302 v 32.970193 l -23.52078,-3.286753 23.82892,8.627716 13.24077,-4.154987 -0.0938,-37.545627 -13.45513,-4.005725 -24.44518,9.243979 z"
       id="path892"
       inkscape:connector-curvature="0"
       sodipodi:nodetypes="cccccccccccc" />
    <path
       sodipodi:nodetypes="cccccccccccc"
       inkscape:connector-curvature="0"
       id="path894"
       d="m 178.23684,79.255894 c 0,0 8.21687,-2.259633 8.31959,-2.670481 0.10271,-0.410841 0.30813,-22.596392 0.30813,-22.596392 l 16.1256,-3.800302 v 32.970193 l -23.52078,-3.286753 23.82892,8.627716 13.24077,-4.154987 -0.0938,-37.545627 -13.45513,-4.005725 -24.44518,9.243979 z"
       style="fill:none;fill-opacity:1;stroke:#000000;stroke-width:4;stroke-linecap:round;stroke-linejoin:bevel;stroke-miterlimit:4;stroke-dasharray:none;stroke-opacity:0.05882353;paint-order:stroke fill markers" />
    <path
       style="fill:none;fill-opacity:1;stroke:#000000;stroke-width:5;stroke-linecap:round;stroke-linejoin:bevel;stroke-miterlimit:4;stroke-dasharray:none;stroke-opacity:0.05882353;paint-order:stroke fill markers"
       d="m 178.23684,79.255894 c 0,0 8.21687,-2.259633 8.31959,-2.670481 0.10271,-0.410841 0.30813,-22.596392 0.30813,-22.596392 l 16.1256,-3.800302 v 32.970193 l -23.52078,-3.286753 23.82892,8.627716 13.24077,-4.154987 -0.0938,-37.545627 -13.45513,-4.005725 -24.44518,9.243979 z"
       id="path896"
       inkscape:connector-curvature="0"
       sodipodi:nodetypes="cccccccccccc" />
    <path
       sodipodi:nodetypes="cccccccccccc"
       inkscape:connector-curvature="0"
       id="path898"
       d="m 178.23684,79.255894 c 0,0 8.21687,-2.259633 8.31959,-2.670481 0.10271,-0.410841 0.30813,-22.596392 0.30813,-22.596392 l 16.1256,-3.800302 v 32.970193 l -23.52078,-3.286753 23.82892,8.627716 13.24077,-4.154987 -0.0938,-37.545627 -13.45513,-4.005725 -24.44518,9.243979 z"
       style="fill:none;fill-opacity:1;stroke:#000000;stroke-width:6;stroke-linecap:round;stroke-linejoin:bevel;stroke-miterlimit:4;stroke-dasharray:none;stroke-opacity:0.05882353;paint-order:stroke fill markers" />
    <path
       style="fill:none;fill-opacity:1;stroke:#000000;stroke-width:7;stroke-linecap:round;stroke-linejoin:bevel;stroke-miterlimit:4;stroke-dasharray:none;stroke-opacity:0.05882353;paint-order:stroke fill markers"
       d="m 178.23684,79.255894 c 0,0 8.21687,-2.259633 8.31959,-2.670481 0.10271,-0.410841 0.30813,-22.596392 0.30813,-22.596392 l 16.1256,-3.800302 v 32.970193 l -23.52078,-3.286753 23.82892,8.627716 13.24077,-4.154987 -0.0938,-37.545627 -13.45513,-4.005725 -24.44518,9.243979 z"
       id="path900"
       inkscape:connector-curvature="0"
       sodipodi:nodetypes="cccccccccccc" />
  </g>
  <path
     style="fill:#ffffff;fill-opacity:1;stroke:none;stroke-width:0.44067058px;stroke-linecap:butt;stroke-linejoin:miter;stroke-opacity:1"
     d="m 19.688232,79.255894 c 0,0 8.216871,-2.259633 8.319583,-2.670481 0.102712,-0.410841 0.30813,-22.596392 0.30813,-22.596392 L 44.441554,50.188719 V 83.158912 L 20.920766,79.872159 44.749688,88.499875 57.990456,84.344888 57.896681,46.799261 44.441554,42.793536 19.996366,52.037515 Z"
     id="path885"
     inkscape:connector-curvature="0"
     sodipodi:nodetypes="cccccccccccc" />
</svg>

<svg width="128" height="128" version="1.1" viewBox="0 0 128 128" xmlns="http://www.w3.org/2000/svg">
<defs>
<linearGradient id="linearGradient827" x1="-350.66" x2="-101.11" y1="190.3" y2="455.96" gradientTransform="matrix(.19411 0 0 .19411 85.327 .71471)" gradientUnits="userSpaceOnUse"/>
<linearGradient id="linearGradient835" x1="758.26" x2="766.34" y1="166.21" y2="738.86" gradientTransform="matrix(.19411 0 0 .19411 -98.347 -14.557)" gradientUnits="userSpaceOnUse"/>
<linearGradient id="linearGradient863" x1="340.44" x2="379.54" y1="329.37" y2="329.37" gradientTransform="matrix(.19411 0 0 .19411 4.7065 .58039)" gradientUnits="userSpaceOnUse"/>
<linearGradient id="linearGradient873" x1="165.38" x2="165.38" y1="493.02" y2="512.39" gradientTransform="matrix(.19411 0 0 .19411 4.7065 .58039)" gradientUnits="userSpaceOnUse"/>
<radialGradient id="radialGradient885" cx="339.39" cy="482.86" r="30.703" gradientTransform="matrix(.25511 -.016608 .013465 .20682 -22.852 -.53658)" gradientUnits="userSpaceOnUse"/>
<radialGradient id="radialGradient907" cx="354.04" cy="185.94" r="20.499" gradientTransform="matrix(.22311 .0060246 -.0049879 .18472 -4.6339 -1.1441)" gradientUnits="userSpaceOnUse"/>
<radialGradient id="radialGradient917" cx="676.62" cy="-100.37" r="14.947" gradientTransform="matrix(.0056997 .2131 -.19815 .0052999 -13.303 -46.861)" gradientUnits="userSpaceOnUse"/>
<linearGradient id="linearGradient994" x1="758.26" x2="766.34" y1="166.21" y2="738.86" gradientTransform="matrix(.19174 -.030225 .030225 .19174 -99.414 .93426)" gradientUnits="userSpaceOnUse"/>
</defs>
<rect transform="rotate(-8.9579)" x="13.481" y="16.167" width="91.78" height="115" rx="9.1177" ry="9.1177" fill="url(#linearGradient835)" style="paint-order:fill markers stroke"/>
<path d="m24.841 12.451 54.486-8.5886 17.907 113.6-54.486 8.5886c-4.9896 0.78651-9.6397-2.5972-10.426-7.5868l-15.067-95.586c-0.78651-4.9896 2.5972-9.6397 7.5868-10.426z" fill="url(#linearGradient994)" style="paint-order:fill markers stroke"/>
<path d="m72.805 35.435h5.2383l0.33577 57.89-7.5888 0.26863z" fill="url(#linearGradient863)"/>
<path d="m10.818 96.818v3.2236h59.972v-4.8354z" fill="url(#linearGradient873)" opacity=".659"/>
<path d="m70.79 100.04-0.0025-1.9996-0.83256-4.9058 4.2417 0.33818 3.6412-0.14822 3.989 0.04749-1.3297 7.3131-10.59 6.1259z" fill="url(#radialGradient885)"/>
<path d="m70.253 31.305 7.9582-0.1679-0.16789 4.2981h-5.2383z" fill="url(#radialGradient907)" opacity=".63"/>
<path d="m10.818 100.04v-5.2671h-5.8027v5.4611z" fill="url(#radialGradient917)" opacity=".594"/>
<rect x="6.4975" y="31.394" width="68.383" height="66.673" rx="4.7488" ry="4.7488" fill="url(#linearGradient827)" style="paint-order:fill markers stroke"/>
<g transform="translate(-159.78 -.61626)" fill="none" opacity=".279" stroke="#000" stroke-linecap="round" stroke-linejoin="bevel" stroke-opacity=".058824">
<path d="m178.24 79.256s8.2169-2.2596 8.3196-2.6705c0.10271-0.41084 0.30813-22.596 0.30813-22.596l16.126-3.8003v32.97l-23.521-3.2868 23.829 8.6277 13.241-4.155-0.0938-37.546-13.455-4.0057-24.445 9.244z" style="paint-order:stroke fill markers"/>
<path d="m178.24 79.256s8.2169-2.2596 8.3196-2.6705c0.10271-0.41084 0.30813-22.596 0.30813-22.596l16.126-3.8003v32.97l-23.521-3.2868 23.829 8.6277 13.241-4.155-0.0938-37.546-13.455-4.0057-24.445 9.244z" stroke-width="2" style="paint-order:stroke fill markers"/>
<path d="m178.24 79.256s8.2169-2.2596 8.3196-2.6705c0.10271-0.41084 0.30813-22.596 0.30813-22.596l16.126-3.8003v32.97l-23.521-3.2868 23.829 8.6277 13.241-4.155-0.0938-37.546-13.455-4.0057-24.445 9.244z" stroke-width="3" style="paint-order:stroke fill markers"/>
<path d="m178.24 79.256s8.2169-2.2596 8.3196-2.6705c0.10271-0.41084 0.30813-22.596 0.30813-22.596l16.126-3.8003v32.97l-23.521-3.2868 23.829 8.6277 13.241-4.155-0.0938-37.546-13.455-4.0057-24.445 9.244z" stroke-width="4" style="paint-order:stroke fill markers"/>
<path d="m178.24 79.256s8.2169-2.2596 8.3196-2.6705c0.10271-0.41084 0.30813-22.596 0.30813-22.596l16.126-3.8003v32.97l-23.521-3.2868 23.829 8.6277 13.241-4.155-0.0938-37.546-13.455-4.0057-24.445 9.244z" stroke-width="5" style="paint-order:stroke fill markers"/>
<path d="m178.24 79.256s8.2169-2.2596 8.3196-2.6705c0.10271-0.41084 0.30813-22.596 0.30813-22.596l16.126-3.8003v32.97l-23.521-3.2868 23.829 8.6277 13.241-4.155-0.0938-37.546-13.455-4.0057-24.445 9.244z" stroke-width="6" style="paint-order:stroke fill markers"/>
<path d="m178.24 79.256s8.2169-2.2596 8.3196-2.6705c0.10271-0.41084 0.30813-22.596 0.30813-22.596l16.126-3.8003v32.97l-23.521-3.2868 23.829 8.6277 13.241-4.155-0.0938-37.546-13.455-4.0057-24.445 9.244z" stroke-width="7" style="paint-order:stroke fill markers"/>
</g>
<path d="m19.688 79.256s8.2169-2.2596 8.3196-2.6705c0.10271-0.41084 0.30813-22.596 0.30813-22.596l16.126-3.8003v32.97l-23.521-3.2868 23.829 8.6277 13.241-4.155-0.093775-37.546-13.455-4.0057-24.445 9.244z" fill="#fff"/>
</svg>
